Argentina/Torneo Federal A/Círculo Deportivo de Comandante Nicanor Otamendi.svg

<svg height="1000" viewBox="0 0 749.99996 749.99996" width="1000" xmlns="http://www.w3.org/2000/svg"><g><path d="M 374.85767 21.637419 C 261.50636 110.32128 218.08377 195.81758 21.196816 201.60273 C 36.308044 401.85478 216.99402 702.08982 374.85767 728.9432 C 532.72132 702.08983 713.40911 401.85478 728.52034 201.60273 C 531.63326 195.81758 488.20898 110.32116 374.85767 21.637419 Z" fill="#fff" fill-rule="evenodd" stroke="#000" stroke-width="4.54821"/><path d="M 374.85767 36.648744 C 266.32176 121.56512 224.74381 203.42945 36.220839 208.96883 C 50.690102 400.71391 223.70027 688.19459 374.85767 713.90719 C 526.01507 688.19459 699.02706 400.71391 713.49632 208.96883 C 524.97322 203.42945 483.3937 121.56501 374.85767 36.648744 Z" fill="#02903e" fill-rule="evenodd" stroke="#000" stroke-width="4.35537"/><path d="m 206.27419 173.02347 c -24.23062 12.57997 -51.61666 22.74961 -85.0299 29.42226 v 262.80823 c 24.82805 46.27612 53.82403 90.16224 85.0299 127.89538 z" fill="#db231d" fill-rule="evenodd"/><path d="m 543.97117 173.02333 c 24.23063 12.58007 51.61667 22.74967 85.02993 29.42232 V 465.2539 c -24.82807 46.27603 -53.82405 90.16221 -85.02993 127.8953 z" fill="#db231d" fill-rule="evenodd"/><path d="m 375.12268 40.00887 c -29.22344 22.863979 -53.43092 45.258909 -77.15072 66.20275 v 573.33084 c 25.75901 17.47316 51.76185 29.28311 77.15072 33.60202 c 25.38887 -4.319 51.39172 -16.12877 77.15082 -33.60202 V 106.21162 C 428.55361 85.267869 404.34613 62.872849 375.12268 40.00887 Z" fill="#db231d" fill-rule="evenodd"/><circle cx="371.17828" cy="370.65601" fill="#fff" r="148.70081" stroke="#000" stroke-linejoin="round" stroke-width="4.78162"/><path d="M 354.17091 246.88579 A 124.756 124.756 0 0 0 245.0633 370.65519 A 124.756 124.756 0 0 0 354.17091 494.42624 V 344.85222 Z" fill="#fff" stroke="#000" stroke-linejoin="round" stroke-width="16.9016"/><path d="M 295.08371 279.61081 H 366.600708 V 448.62659 H 295.08371 Z" fill="#fff"/><path d="M 354.1709 234.20961 H 362.66665 V 246.885793 H 354.1709 Z"/><path d="M 354.1709 494.42624 H 362.666651 V 507.102423 H 354.1709 Z"/><g transform="matrix(1.1267719 0 0 1.1267719 245.77508 231.1429)"><path d="M 169.21094 18.628906 V 134.4668 V 311.37109 A 147.62646 147.62646 0 0 0 297.62695 165 A 147.62646 147.62646 0 0 0 169.21094 18.628906 Z" fill="#fff" stroke="#000" stroke-linejoin="round" stroke-width="20" transform="scale(.74999996)"/><path d="M 119.36829 233.52831 H 126.908193 V 244.778309 H 119.36829 Z"/><path d="M 119.36829 2.72168 H 126.908193 V 13.971679 H 119.36829 Z"/></g></g></svg>

<svg xmlns="http://www.w3.org/2000/svg" width="1000" height="1000" viewBox="0 0 750 750"><path fill="#fff" fill-rule="evenodd" stroke="#000" stroke-width="4.548" d="M374.858 21.637c-113.352 88.684-156.774 174.18-353.661 179.966 15.111 200.252 195.797 500.487 353.66 527.34C532.722 702.09 713.41 401.855 728.52 201.603 531.633 195.818 488.21 110.32 374.858 21.637Z"/><path fill="#02903e" fill-rule="evenodd" stroke="#000" stroke-width="4.355" d="M374.858 36.649c-108.536 84.916-150.114 166.78-338.637 172.32C50.69 400.714 223.7 688.195 374.858 713.907c151.157-25.712 324.17-313.193 338.638-504.938-188.523-5.54-230.102-87.404-338.638-172.32Z"/><path fill="#db231d" fill-rule="evenodd" d="M206.274 173.023c-24.23 12.58-51.616 22.75-85.03 29.423v262.808c24.828 46.276 53.824 90.162 85.03 127.895zM543.971 173.023c24.23 12.58 51.617 22.75 85.03 29.423v262.808c-24.828 46.276-53.824 90.162-85.03 127.895zM375.123 40.009c-29.224 22.864-53.431 45.259-77.151 66.203v573.33c25.759 17.474 51.762 29.284 77.15 33.602 25.39-4.319 51.392-16.128 77.151-33.602v-573.33c-23.72-20.944-47.927-43.34-77.15-66.203"/><circle cx="371.178" cy="370.656" r="148.701" fill="#fff" stroke="#000" stroke-linejoin="round" stroke-width="4.782"/><path fill="#fff" stroke="#000" stroke-linejoin="round" stroke-width="16.902" d="M354.17 246.886a124.756 124.756 0 0 0-109.107 123.77 124.756 124.756 0 0 0 109.108 123.77V344.852Z"/><path fill="#fff" d="M295.084 279.61H366.6v169.017h-71.517Z"/><path d="M354.17 234.21h8.497v12.676h-8.496ZM354.17 494.426h8.497v12.676h-8.496Z"/><path fill="#fff" stroke="#000" stroke-linejoin="round" stroke-width="16.901600000000002" d="M388.772 246.886v247.39a124.756 124.756 0 0 0 108.521-123.695 124.756 124.756 0 0 0-108.521-123.695Z"/><path d="M380.276 494.276h8.496v12.676h-8.496ZM380.276 234.21h8.496v12.676h-8.496Z"/></svg>
